X:31
T:Rakes of Kildare
C:Trad Irish Jig
Z:Wendy Anthony for CoMando TOW & Mandozine
S:from Scott Minter for CoMando TOW
R:Jig
L:1/8
Q:340
M:6/8
K:Ador
 z4zG |: "Am"EAA AGA | Bcd e2f | "G"gfg ege | dBG G2A |
 "Am"EAA AGA | Bcd e2f | "G"gfe "Em"dBG |1 "Am"A3 z2G :|2 "Am"A3 z2a |
 "Am"aea aea | aea b2a | "G"gfg ege | dBG G2a |
 "Am"aea aea | aea b2a | "G"gfe "Em"dBG | "Am"A3 z2a |
 "Am"aea aea | aea b2a | "G"gfg ege | dBG G2G |
 "Am"EAA AGA | Bcd e2f | "G"gfe "Em"dBG | "Am"A3 z3 |
